icon-themes/breeze_svg/cmd/sc_dataarearefresh.svg

<svg viewBox="0 0 16 16" xmlns="http://www.w3.org/2000/svg"><path d="m2 2v12h1 5v-1h-1v-3h1v-1h-1v-3h2v2h1v-2h1 1 1v2h1v-6zm1 1h3v2h-3zm4 0h2v2h-2zm3 0h1 1 1v2h-1-1-1zm-7 3h3v3h-3zm0 4h3v3h-3z" fill="#4d4d4d"/><path d="m11.5 9c-.433427 0-.832855.1201-1.1875.3125l.75.75c.137094-.041.286709-.0625.4375-.0625.831 0 1.5.669 1.5 1.5 0 .1508-.02148.3004-.0625.4375l.75.75c.192495-.3547.3125-.7541.3125-1.1875 0-1.385-1.115-2.5-2.5-2.5zm-2.1875 1.3125c-.192495.3547-.3125.7541-.3125 1.1875 0 1.385 1.115 2.5 2.5 2.5.433427 0 .832855-.1201 1.1875-.3125l-.75-.75c-.137094.041-.286709.0625-.4375.0625-.831 0-1.5-.669-1.5-1.5 0-.1508.02147-.3004.0625-.4375z" fill="#1d99f3"/></svg>

<svg viewBox="0 0 16 16" xmlns="http://www.w3.org/2000/svg">
  <path
     style="fill:#4d4d4d"
     d="M 2 2 L 2 14 L 3 14 L 8 14 L 8 13 L 7 13 L 7 10 L 8 10 L 8 9 L 7 9 L 7 6 L 9 6 L 9 8 L 10 8 L 10 6 L 11 6 L 12 6 L 13 6 L 13 8 L 14 8 L 14 2 L 2 2 z M 3 3 L 6 3 L 6 5 L 3 5 L 3 3 z M 7 3 L 9 3 L 9 5 L 7 5 L 7 3 z M 10 3 L 11 3 L 12 3 L 13 3 L 13 5 L 12 5 L 11 5 L 10 5 L 10 3 z M 3 6 L 6 6 L 6 9 L 3 9 L 3 6 z M 3 10 L 6 10 L 6 13 L 3 13 L 3 10 z "
     />
  <path
     style="fill:#1d99f3"
     d="m 11.5,9 c -0.433427,0 -0.832855,0.1201 -1.1875,0.3125 l 0.75,0.75 C 11.199594,10.0215 11.349209,10 11.5,10 c 0.831,0 1.5,0.669 1.5,1.5 0,0.1508 -0.02148,0.3004 -0.0625,0.4375 l 0.75,0.75 C 13.879995,12.3328 14,11.9334 14,11.5 14,10.115 12.885,9 11.5,9 Z M 9.3125,10.3125 C 9.120005,10.6672 9,11.0666 9,11.5 c 0,1.385 1.115,2.5 2.5,2.5 0.433427,0 0.832855,-0.1201 1.1875,-0.3125 l -0.75,-0.75 C 11.800406,12.9785 11.650791,13 11.5,13 10.669,13 10,12.331 10,11.5 c 0,-0.1508 0.02147,-0.3004 0.0625,-0.4375 z"
     />
</svg>
